X: 55
T:Bill Cheetham
% Nottingham Music Database
S:via PR
M:4/4
L:1/4
K:A
"A"Ec cA/2B/2|c/2B/2A/2c/2 B/2A/2F/2E/2|"D"D/2F/2A/2c/2 dB/2c/2|\
"D"d/2c/2d/2e/2 "E7"d/2c/2B/2A/2|
"A"Ec cA/2B/2|"A"c/2B/2A/2c/2 B/2A/2F/2A/2|"D"d/2c/2d/2e/2 f/2g/2a/2f/2|\
"E7"e/2c/2B/2c/2 "A"A2::
"A"e/2c/2e/2a/2 "D"f/2d/2f/2a/2|"E"g/2a/2b/2g/2 "A"ac/2d/2|\
"A"e/2c/2e/2a/2 "D"f/2d/2f/2a/2|"A"e/2c/2B/2A/2 "E7"Bc/2d/2|
"A"e/2c/2e/2a/2 "D"f/2d/2f/2a/2|"E"g/2a/2b/2g/2 "A"af/2g/2|\
"A"a/2g/2a/2e/2 "D"f/2a/2e/2d/2|"E"c/2A/2B "A"A2:|<end>
<start>
